X:11802
T:My Darling Asleep
R:Jig
B:Tuneworks Tunebook (https://www.tuneworks.co.uk/)
G:Tuneworks
Z:Jon Warbrick <jon.warbrick@googlemail.com>
M:6/8
L:1/8
K:D
|: e | "D"fed cBA | "G"BAG A2 G | "D"FAA def | "A"gfg eag | 
"D"fed cBA | "G"BAG A2 G | "D"FAA def | [1 "A"gec "D"d2 :| "A"gec "D"d2 |]
|: A | "D"FAA BAG | FAA BAG | "D"FAA def | "A"gfg eag | 
"D"fdd cBA | "G"BAG A2 G | "D"FAA def | "A"gec "D"d2 :|